X:1
T:Title
%%score { ( 1 2 5 ) | ( 3 4 ) }
L:1/8
M:4/4
K:G
V:1 treble nm="Grand Piano"
V:2 treble 
V:5 treble 
V:3 treble 
V:4 treble 
V:1
 z4 z2[Q:1/4=100] z z/ G/ | B2 B2 B>A [GB]>[Ac] | [GB]2 [FA]2 [FA]2 z z/ F/ | %3
 [FA]2 [FA]2 [FA]>[EG] [FA]>B | [CDA]2 [B,DG]2 [B,DG]2 [B,D]2 | [DGB]2 [DGB]2 [GB]>d [DEc]>[DB] | %6
 [CDA]2 [CEG]2 [CE]2 [CEG]>[CE] | [B,D]4 [A,DF]2 [CDA]2 | [B,DG]4 z2 z z/ G/ | %9
 B2 B2 B>A [GB]>[Ac] | [GB]2 [FA]2 [FA]2 z z/ F/ | [FA]2 [FA]2 [FA]>[EG] [FA]>B | %12
 [CDA]2 [B,DG]2 [B,DG]2 [B,D]2 | [DGB]2 [DGB]2 [GB]>d [DEc]>[DB] | [CEA]2 [CEG]2 [CE]2 [CEG]>[CE] | %15
 [B,D]4 [A,DF]2 [CDA]2 |[M:3/4] [B,DG]4 z2 |[M:1/4] D2 |[M:4/4] G6 z2 | A6 z2 | A6 z2 | B6 z2 | %22
 B4 z4 | [EA]4 z4 | D4 F2 A2 |[M:3/4] [B,DG]6 |] %26
V:2
 z4 z2 D2 | x8 | z4 z2 D2 | x8 | x8 | z4 B,2 z2 | x8 | x8 | z4 z2 [B,D]2 | x8 | z4 z2 D2 | x8 | %12
 x8 | z4 B,2 z2 | x8 | x8 |[M:3/4] x6 |[M:1/4] x2 |[M:4/4] z2 D>D D2 F>G | z2 F>F F2 D2 | %20
 z2 F>F F2 G>A | z2 G>G G2 D2 | D2 z d [Fc]B .[DA]2 | C2 z G E2 [EG]>E | x8 |[M:3/4] x6 |] %26
V:3
 z4 z2 [G,B,]2 | [G,DG]2 [G,DG]2 G>F[K:bass] [G,D]>[G,D] | [D,D]2 [D,D]2 [D,D]2 D,2 | %3
 [D,D]2 [D,D]2 [D,D]2 z z/ G/ | D,2 G,,2 G,,2 z z/ G/ | G,,2 G,,2 z z/ F/ A,,>B,, | %6
 C,2 C,2 C,2 C,>C, | D,4 D,2 D,2 | G,,4 z2[K:treble] G,2 | %9
 [G,DG]2 [G,DG]2 G>F[K:bass] [G,D]>[G,D] | [D,D]2 [D,D]2 [D,D]2 D,2 | %11
 [D,D]2 [D,D]2 [D,D]2 z z/ G/ | D,2 G,,2 G,,2 z z/ G/ | G,,2 G,,2 z z/ F/ A,,>B,, | %14
 C,2 C,2 C,2 C,>C, | D,4 D,2 D,2 |[M:3/4] G,,4 z2 |[M:1/4] z2 | %18
[M:4/4] z2 [G,B,]>[G,B,] [G,B,]2 z2 | z2 [D,D]>[D,D] [D,D]2 z2 | z2 [D,D]>[D,D] [D,D]2 z2 | %21
 z2 [G,D]>[G,D] [G,D]2 [G,B,]2 | G,,2 z G z G z G | C,2 z E [C,C]2 [C,C]>[C,C] | %24
 [D,B,]4 [D,A,D]2 [D,CD]2 |[M:3/4] G,,6 |] %26
V:4
 x8 | z4 [G,D]2[K:bass] z2 | x8 | z4 z2 [D,D]2 | z4 z2 G,,2 | z4 G,,2 z2 | x8 | x8 | %8
 x6[K:treble] x2 | z4 [G,D]2[K:bass] z2 | x8 | z4 z2 [D,D]2 | z4 z2 G,,2 | z4 G,,2 z2 | x8 | x8 | %16
[M:3/4] x6 |[M:1/4] x2 |[M:4/4] x8 | x8 | x8 | x8 | z2 G,,2 G,,2 G,,2 | z2 C,2 z4 | x8 | %25
[M:3/4] x6 |] %26
V:5
 x8 | x8 | x8 | x8 | x8 | x8 | x8 | x8 | x8 | x8 | x8 | x8 | x8 | x8 | x8 | x8 |[M:3/4] x6 | %17
[M:1/4] x2 |[M:4/4] x8 | x8 | x8 | x8 | z2 B,2 B,2 z2 | z2 C2 z4 | x8 |[M:3/4] x6 |] %26

